!!!!SEGMENT: pl-wn--sd-xvi-qu-273--131_gomolka-mikolaj--wieczny-boze-nie-najdziesz-pychy-w-sercu-moim.krn
!!!cenid: 15xx:336
!!!COM: Gomółka, Mikołaj
!!!COM-rismid: pe30013343
!!!CDT: ~1535->1591/04/30
!!!CNT: Polish
!!!GTL: Melodiae na psalterz polski
!!!OTL: CXXXI. Wieczny Boże, nie najdziesz pychy w sercu moim,
!!!ONB: Domine non est exal-tatum
!!!PDT: 1580
!!!AGN: Sacred
!!!SMS-siglum: PL-Wn
!!!SMS-shelfmark: SD XVI.Qu.273
!!!SMS-shelfwork: 131 G
!!!NIFC-rismid:
!!!ONB-nifc: Melodiae na psalterz polski
**kern	**text	**kern	**text	**kern	**text	**kern	**text
*part4	*part4	*part3	*part3	*part2	*part2	*part1	*part1
*staff4	*staff4	*staff3	*staff3	*staff2	*staff2	*staff1	*staff1
*clefF4	*	*clefC3	*	*clefC3	*	*clefC1	*
*k[b-]	*	*k[b-]	*	*k[b-]	*	*k[b-]	*
*g:	*	*g:	*	*g:	*	*g:	*
*M4/2	*	*M4/2	*	*M4/2	*	*M4/2	*
*met(C|)	*	*met(C|)	*	*met(C|)	*	*met(C|)	*
=1-	=1-	=1-	=1-	=1-	=1-	=1-	=1-
1GG/	WIecʒ-	1G/	WIecʒ-	2.B-/	WIecʒ-	1d/	Wiecʒ-
.	.	.	.	4c/	-ny	.	.
4GG/	-ny	2B-/	-ny	2d\	bo-	2g/	-ny
4AA/	bo-	.	.	.	.	.	.
4BB-/	-ʒ̇e	2B-/	bo-	2.d\	-ʒ̇e,	2g/	bo-
4C/	nie	.	.	.	.	.	.
=2-	=2-	=2-	=2-	=2-	=2-	=2-	=2-
2D/	nay-	2.A/	-ʒ̇e	.	.	2f/	-ʒ̇e,
.	.	.	.	4c\	nie	.	.
2G\	.	.	.	4d\	nay-	2b-\	nie
.	.	4B-/	nie	4e\	.	.	.
2F\	-dʒ́ieſʒ	2c/	nay-	2.f\	-dʒ́i-	2.a\	nay-
2D/	.	2.d\	-dʒ́iſz	.	.	.	.
.	.	.	.	4e\	-eſʒ	4g/	-dʒ́i-
=3-	=3-	=3-	=3-	=3-	=3-	=3-	=3-
2D/	py-	.	.	2.d\	py-	4f/	-eſʒ
.	.	4c/	.	.	.	4e/	py-
2G\	-chy	2B-/	py-	.	.	2d/	-chy
.	.	.	.	4e\	-chy	.	.
2.F\	w	4c/	-chy	4f\	.	4a\	.
.	.	4B-/	w	4e\	w	4g\	w
.	.	4A/	ſer-	4d\	ſer-	2.f/	ſercu
4E\	ſercu	4G/	-cu	4c\	-cu	.	.
=4-	=4-	=4-	=4-	=4-	=4-	=4-	=4-
4D/	.	2F/	mo-	2.B-/	.	.	.
4C/	moim,	.	.	.	.	4e/	.
2BB-/	.	2F/	-im,	.	.	1d/	moim,
.	.	.	.	4A/	mo-	.	.
1E\	A-	1G/	.	4G/	-im,	.	.
.	.	.	.	4F/	.	.	.
.	.	.	.	2G/	A-	2c/	.
=5-	=5-	=5-	=5-	=5-	=5-	=5-	=5-
2D/	-nim	2A/	A-	2F/	-nim	2d/	A-
2D/	.	2d\	-nim	2f\	.	2.a\	-nim
2AA/	ia	2c#X/	.	2e\	ia	.	.
.	.	.	.	.	.	4g\	ia
2BB-/	ʒwykł	4d\	ia	2d\	ʒwykł	2f/	ʒwykł
.	.	4c#\	ʒwykł	.	.	.	.
=6-	=6-	=6-	=6-	=6-	=6-	=6-	=6-
!!LO:PB:g=original
2GG/	prʒe-	4B-/	.	2d\	prʒe-	2.b-\	prʒe-
.	.	4A/	prʒe-	.	.	.	.
4F-\	-no-	4G/	-no-	1d\	-no-	.	.
4E\	-śić	4A/	-śić	.	.	4a\	-no-
4D/	chud-	2B-/	chud-	.	.	4g/	-śić
4C/	.	.	.	.	.	4f/	chud-
2E\	-ſʒych	4A/	.	2c\	-śić	2g/	.
.	.	4G/	-ſʒych	.	.	.	.
=7-	=7-	=7-	=7-	=7-	=7-	=7-	=7-
2D\	o-	2A/	.	2d\	chud-	2f/	-ſʒych
1F\	-kiem	1A/	o-	1d\	-ſʒych	1a\	o-
.	.	.	.	.	.	.	.
2D/	.	2F/	-kiem	2f\	.	2b-\	-kiem
=8-	=8-	=8-	=8-	=8-	=8-	=8-	=8-
2E\	ſwo-	2G/	.	2e\	oki-	2g/	.
2C/	-im:	4c/	ſwo-	2e\	-em	1g\	ſwo-
.	.	4B-/	.	.	.	.	.
1D\	.	4A/	-im:	2.d\	ſwo-	.	.
.	.	4G/	.	.	.	.	.
.	.	2A/	Ani	.	.	2f/	-im:
.	.	.	.	4c/	-im:	.	.
=9-	=9-	=9-	=9-	=9-	=9-	=9-	=9-
1GG/	A-	1G/	.	1B/	Ani	1g\	A-
1.D\	-ni	1.A/	ſye	1.d\	ſye	1.f/	-ni ſye
=10-	=10-	=10-	=10-	=10-	=10-	=10-	=10-
.	.	.	.	.	.	.	.
2D\	ſye	2A/	ia	2d\	ia	2f/	ia
2G\	ia	2B-/	ná	2d\	ná	2g/	ná
2F#\X	ná	2A/	.	2d\	wiel-	2a\	wiel-
=11-	=11-	=11-	=11-	=11-	=11-	=11-	=11-
2G\	wiel-	2.B-/	wiel-	2d\	.	2g/	.
2E-\X	-kié	.	.	2G/	-kié	2g/	-kié
.	.	4c/	-kié	.	.	.	.
2D/	ná-	4d\	.	2A/	ná-	2f/	ná-
.	.	4e\	ná-	.	.	.	.
2D/	.	2f\	.	2d\	.	2a\	.
=12-	=12-	=12-	=12-	=12-	=12-	=12-	=12-
!!LO:PB:g=original
2E\	-ʒbyt	4e\	-ʒbyt	2B-/	-ʒbyt	4g/	-ʒbyt
.	.	4d\	ka-	.	.	4a\	ka-
2BB-/	ka-	4d\	-ſʒę	2f\	ka-	2b-\	-ſʒę
.	.	8c/L	rʒe-	.	.	.	.
.	.	8B-/J	-cʒy	.	.	.	.
2F\	-ſʒę	2c/	.	2.f\	-ſʒę	2b-\	rʒe-
2FF/	rʒe-	2c/	A-	.	.	2a\	-cʒy,
.	.	.	.	4e\	rʒecʒy,	.	.
=13-	=13-	=13-	=13-	=13-	=13-	=13-	=13-
2BB-/	-cʒy,	2B-/	-ni	2d\	A-	2b-\	A-
2D/	A-	2f\	sye	2d\	-ni	2a\	-ni
2D/	-ni	2.f\	ia nad	2.d\	sye	2a\	sye
2D/	sye	.	.	.	.	2a\	ia
.	.	4e-\X	ro-	4e\	ia nad	.	.
=14-	=14-	=14-	=14-	=14-	=14-	=14-	=14-
1BB-/	ia	2.d\	-ʒum	1f\	.	2.b-\	nad
.	.	4c/	wy-	.	.	4a\	roʒum
2E\	nad	2B-/	-ſa-	2e-\X	roʒum	1g\	.
2E\	ro-	4A/	.	2c/	wy-	.	.
.	.	4G/	-dʒam	.	.	.	.
=15-	=15-	=15-	=15-	=15-	=15-	=15-	=15-
2D/	-ʒum	2A/	.	2d\	-ſa-	2f/	wy-
1D\	wy-	1d\	cʒło-	1f\	-dʒam	1a\	-ſa-
.	.	.	.	.	.	.	.
2F\	-ſa-	2c/	.	2f\	.	2a\	-dʒam
=16-	=16-	=16-	=16-	=16-	=16-	=16-	=16-
2C/	-dʒam	2c/	.	2e\	cʒło-	2g/	.
2E\	.	2G/	-wie-	2c\	-wie-	1g\	cʒło-
1D\	cʒło-	2B-/	-cʒy.	2.d\	-cʒy.	.	.
.	.	2A/	.	.	.	2f/	-wie-
.	.	.	.	4c/	.	.	.
=17-	=17-	=17-	=17-	=17-	=17-	=17-	=17-
000GG/	-wiecʒy	000G/	.	000B-/	.	000g\	-cʒy.
==-	==-	==-	==-	==-	==-	==-	==-
*-	*-	*-	*-	*-	*-	*-	*-
!!!RDF**kern: l = terminal long
!!!system-decoration: s1,s2,s3,s4
!!!ENC: Leszek Kubiak
!!!END: data 2020-02-21
!!!URL-scan: https://polona.pl/item/melodiae-na-psalterz-polski,Nzk3MTM4ODQ/306 Scan on Polona
!!!IIIF: https://polona.pl/iiif/item/Nzk3MTM4ODQ/manifest.json
